X: 1841
M: 3/4
L: 1/8
V: 1 clef=treble nm="CLARINET PRIMO" snm="C1"
V: 2 clef=treble nm="CLARINET SECONDO" snm="C2"
V: 3 clef=bass middle=D nm="TENOR TROMBONE" snm="T"
V: 4 clef=bass middle=d nm="OPHICLEIDE" snm="O"
K: F
V: 1
c>c |\
c2c2c2 | c4c>c | c2c2c2 | d4f2 |\
(f2e2)d2 | (c2B2)G2 | F4z2 | z6 ||
|: c2-cdcA | F2-FEFA | c2-cdef | g2-gf^cd |\
e2-edBG | FEGFAG | (BA)(cB)(dc) | =BcdcA2 |
"^8va   -   -   -   -   -   -   -   -"\
c2cdcA | F2-FEFA | c2cdef | g2gf^cd |\
e2edcG | ^FGAGBA | cBedBG | F4z2 H:|
V: 2
!f!A>A |\
|: !p!z2c2c2 | z2c2c2 | z2c2c2 | z2d2d2 |
z2d2d2 | z2c2c2 | z2e2e2 | z2c2c2 |\
zcAcAc | zcAcAc | zcAcAc | zdGdBd | zdGdBd | zcEcBc | zcEcBc | A4z2 H:|
V: 3
!f!F>F |
|: !p!z2A2A2 | z2A2A2 | z2A2A2 | z2B2B2 |
z2B2B2 | z2B2B2 | z2c2c2 | z2A2A2 |\
!f!c2cdcA | F2-FEFA | c2cdef | g2gf^cd | e2 edBG | ^FGAGBA | cBedBG | F4z2 H:|
V: 4
!f!F>F |\
|: !p!F6 | f6 | f6 | f6 |
f2z2z2 | f2z2z2 | f2z2z2 | f2z2z2 |\
!f!f2f2f2 | f2f2f2 | f2f2f2 | f2f2f2 |\
f2f2f2 | e2e2e2 | c2c2c2 | F4z2 H:|

